!!!ONR: No. 39
!! From Harold Courlander, "Haiti Singing"
!! Chapel Hill: University of North Carolina Press, 1939
!! Copyright University of North Carolina Press
!!!ENC: D. Huron
**kern
*clefG2
*k[]
*M2/4
=1-
4r
8r
8b
=
8dd
8ee
8gg
8gg
=
4.ee
8dd
=
8b
8b
8b
8b
=
4.a
8b
=
8b
8b
8g
8g
=
8e
4e
8g
=
16b
16b
16b
16g
8e
[8g
=
4.g]
8g
=
16b
16b
16b
16gg
16ee
8gg
[16ee
=
4.ee]
8b
=
8dd
8ee
8gg
8gg
=
4.ee
8dd
=
8b
8b
8b
8b
=
4.a
8b
=
8b
8b
8g
8g
=
8e
[4.e
=
2e]
==
*-
